X:1
T:Colette
T:Colette
T:Cécile Chaminade
T:(Paul) Jules Barbier
T:OpenScore (CC0)
T:OpenScore (CC0)
T:OpenScore (CC0)
T:OpenScore (CC0)
T:OpenScore (CC0)
T:OpenScore (CC0)
T:OpenScore (CC0)
C:Cécile Chaminade
Z:(Paul) Jules Barbier
Z:OpenScore (CC0)
%%score ( 1 2 ) { ( 3 4 ) | ( 5 6 ) }
L:1/8
Q:1/4=120
M:4/4
K:Eb
V:1 treble nm="Voice"
V:2 treble 
V:3 treble nm="Piano"
V:4 treble 
V:5 bass 
V:6 bass 
V:1
"^Allegro." z8 | z8 | z8 | z8 |!mf! B e B A B4 |!p! G B G F G4 | C A C A C2 A2 | C2 G G E3 z | %8
w: ||||A- vril a par- lé,|Co- let- te‿est rê- veu-|se!‿El- le‿a dé- lais- sé les|jeux d'au- tre- fois!|
w: ||||A- pril calls a- loud,|Pen- sive is Col- ette!|She gives o'er the sports of|ear- li- er days!|
!<(! G F F =A (AG) (GB)!<)! |[Q:1/4=110]"^cresc." (B=A)[Q:1/4=100] A c (cBA) !breath!G | %10
w: Mais quand des oi- seaux * la *|troupe * a- mou- reu- * * se|
w: But when flock- ing birds * in love's|rap- * ture so sweet- * * ly|
[Q:1/4=120]"^a tempo." F B F E F2 D D |{DF} E2 (DC) B,4 |!p! G G G G d2 D2 |!pp! B B B B e4 | %14
w: Chan- te du prin- temps les di-|vins ex- * ploits,|El- le‿é- cou- te,‿heu- reu- se,|Au fond des grands bois!|
w: Sing of glow- ing spring- time the|mer- ry * lays,|She each tune- ful dit- ty|Hearts in sweet a- maze!|
!mf! B e B A B4 |!p! G B G F G2 G2 | C A C A C2 A A | C2 G2 E3 z |!<(! G F F =A (AG) (GB)!<)! | %19
w: Tout par- le‿à son coeur,|ru- meurs bo- ca- gè- res,|Par- fums ca- res- sants ou ray-|ons joy- eux!|Vé- nus ou Phoe- bé, * d'a- *|
w: All things move her heart,|rust- ling wood- land nois- es,|Sooth- ing o- dors rare, rays from|laugh- ing skies.|Moon and dream- y star * that *|
[Q:1/4=110]"^cresc." (B=A)[Q:1/4=100] A c (cBA) G |[Q:1/4=120]"^a tempo." F B F E F2 D2 | %21
w: mour * mes- sa- gè- * * re,|Lui sem- blent des yeux fix-|
w: tell * of love's bliss- * * es,|Seem to her like eyes that|
{DF} E2 D C B,4 |!p! G G G G d2 D2 |!pp! B B B B e4- | e2 z2 z4 | z8 |!mf! G B G ^F G4 | %27
w: és sur ses yeux,|Les bri- ses lé- gè- res|Un sou- pir des  cieux!|_||Le gen- til Co- lin,|
w: dwell on her eyes,|And the whisp'- ring breez- es|Like to heav'n- ly sighs!|_||Co- lin, pret- ty boy,|
!<(! G =A B c (d2 e2)!<)! | d d c c B2 =A2 | ^F2 G G =A4 |!f! B B c c =F4 |!<(! B B c c e2 d2!<)! | %32
w: de- puis sa nais- san- ce,|A- vait ses bai- sers d'en-|fant cha- que jour;|Tous deux i- gno- raient|l'é- tran- ge puis- san- ce|
w: from his na- tal hour _|Sought her child- ish kiss- es|ev- er- y day;|Noth- ing ei- ther knew|of the won- drous pow- er|
 c"^dim." c d d"^dolce." B2 c2 | B2 =A A B3 z |!p! B B B B c2 F2 | %35
w: D'un bai- ser qu'on  donne et|prend tour à tour!|Mais leur in- no- cen- ce|
w: Of a kiss that lip to|lip doth re- pay!|But Love's o- p'ning flow- er|
"^poco rit."[Q:1/4=110] B B[Q:1/4=100] c c d4 |!mf![Q:1/4=120]"^a tempo." B e B A B4 | %37
w: Leur ap- prit l'a- mour!|Co- lin, un ma- tin,|
w: Grew from child- ish play!|Now one day at morn,|
 G B G F G2 G2 | C A C A C2 A2 | C2 G G E3 z |!<(! G F F =A (AG) G B!<)! | %41
w: la vo- yant pa- raî- tre,|Lui vou- lut au front ses|lè- vres po- ser,|El- le‿eut un ca- pri- ce où l'a-|
w: yet an art- less lov- er,|Co- lin on her brow his|lips fain would press;|Of fore- bod- ing love * a ca-|
[Q:1/4=112]"^cresc." (B=A)[Q:1/4=104] (Ac)[Q:1/4=96] (cBA) G | %42
w: mour * put * naî- * * tre|
w: price * did _ move _ _ her|
[Q:1/4=120]"^a tempo." F B F!>(! E F2 D2!>)! |!p!{DF} E2 D C B,4 |!p! G G G G d2 D2 | %45
w: Et se fit un jeu de|s'y re- fu- ser,|Lors il put con- naî- tre|
w: To pre- tend in play she|took it a- miss;|He might then dis- cov- er|
"^poco rit."[Q:1/4=110] B B[Q:1/4=100] B B e4- |[Q:1/4=120]"_a tempo." e4 z4 | z8 |] %48
w: Le prix d'un bai- ser.|_||
w: How to win a kiss!|_||
V:2
 x8 | x8 | x8 | x8 | x8 | x8 | x8 | x8 | x4 x2 G B | x8 | x8 | x8 | x8 | x8 | x8 | x8 | x8 | x8 | %18
 x8 | x8 | x8 | x8 | x8 | x8 | x8 | x8 | x8 | x4 d2 e2 | x8 | x8 | x8 | x8 | x8 | x8 | x8 | x8 | %36
 x8 | x8 | x8 | x8 | x8 | x8 | x8 | x8 | x8 | x8 | x8 | x8 |] %48
V:3
 (FBFE) (FBFE) | (FBFE) [DF]4 |!p! (BeBA [GB]2 [EG]2) |{/B} (AG [A,=DF]2) [G,E]4 | %4
!mf! ([GB]e[GB][FA] [GB]4) |!p! ([EG][B,B][EG][CF] [B,G]4) | ([A,C][DA][A,C][DA] [A,C]2 [DA]2) | %7
 ([A,C]2 [B,DG]2 [G,E]4) |!<(! B3 B B3 f!<)! |"_cresc." f3 f f4 | (F3 E F2 [B,D]2) | %11
 [G,B,E]2[I:staff +1] [E,=A,]2 [D,B,]3[I:staff -1] z |!p! [^CG]4 [=C^F]4 | [_A,D_A]4 [G,EG]4 | %14
!mf! ([GB]e[GB][FA] [GB]4) |!p! ([EG][B,B][EG][CF] [B,G]4) | ([A,C][DA][A,C][DA] [A,C]2 [DA]2) | %17
 ([A,C]2 [B,DG]2 [G,E]4) |!<(! (GF)(F=A) (AG)(GB)!<)! | (B=A)(Ac) (!arpeggio!cBAG) | %20
"_a tempo." ([B,F]3 [B,E] [B,F]2 [B,D]2) | ([G,B,E]2[I:staff +1] [E,=A,]2 [D,B,]3)[I:staff -1] z | %22
!p! [^CG]4 [=C^F]4 |!pp! [_A,D_A]4 !arpeggio![G,B,EG]4 |!mf! (BeBA [GB]2 [EG]2) | %25
!p!{/B} (AG [A,=DF]2 [G,E]3) z |!mf! [GB]3 =A [GB]2{/^f} !>!g z | z4 ([Bd]2 [ce]2 | %28
 [Bd]2 [=Ac]2 [GB]2 [EA]2 | [D^F]2 [DG]2 [DF=A]4) |!f! [=FB]2 [Gc]2 z2{/g} !>!f z | %31
!<(! ([FB]2 [Gc]2!<)! [=Ae]2 [Bd]2) |"_dim." ([Gc]2 [^Fd]2 [DB]2 [Gc]2 | B2 =A2) [DFB]4 | %34
!p! [F_AB]2 [F_AB]2 [Acf]4 | [FAB]2 !arpeggio![Acf]2 [FAB]4 |!mf! ([GB]e[GB][FA] [GB]4) | %37
 ([EG][B,B][EG][CF] [B,G]4) | ([A,C][DA][A,C][DA] [A,C]2 [DA]2) | ([A,C]2 [B,DG]2 [G,E]4) | %40
!<(! (GFF=A) (AG)(GB)!<)! |"_cresc." (B=A)(Ac) (!arpeggio!cBAG) | ([B,F]3 [B,E] [B,F]2 [B,D]2) | %43
 ([G,B,E]2[I:staff +1] [E,=A,]2 [D,B,]3)[I:staff -1] z |!p! [^CG]4 [=C^F]4 | %45
!pp! [_A,D_A]4 !arpeggio![G,B,EG]4 | (BeBA [GB]2 [EG]2) |!>(!{/B} AG [A,=DF]2 [G,E]4!>)! |] %48
V:4
 D3 C D3 C | D3 C x4 | G3 F x4 | E2 x6 | x8 | x8 | x8 | x8 | GFF=A AGGB | B=AAc (cBAG) | x8 | x8 | %12
 x8 | x8 | x8 | x8 | x8 | x8 | B,2 B,2 B,2 B,2 | B,2 B,2 B,4 | x8 | x8 | x8 | x8 | G3 F x4 | %25
 E2 x6 | x8 | x8 | x8 | x8 | x4 [F=A]4 | x4 F4 | x8 | [C=F]4 x4 | x8 | x8 | x8 | x8 | x8 | x8 | %40
 B,2 B,2 B,2 B,2 | B,2 B,2 B,4 | x8 | x8 | x8 | x8 | G3 F x4 | E2 x6 |] %48
V:5
!f! A,3 G, A,3 G, | A,3 G, x4 | (_D3 C D2 B,2) | [A,C]2 B,,2 (E,,B,,E,B,,) | %4
 (E,,B,,E,B,,) (E,,B,,E,B,,) | (E,,B,,E,B,,) (E,,B,,E,B,,) | (E,,B,,F,B,,) (E,,B,,F,B,,) | %7
 (E,,B,,E,,B,,) (E,,B,,E,) z |[K:treble]!p! (ED)(DF) (FE)(EG) | (GF)(F=A) (AGFE) | %10
"^a tempo." (A3 E3[K:bass] G,2) | C,2 F,,2!>(! (B,,,F,,B,,F,)!>)! | [E,B,]4 [D,=A,]4 | %13
 [B,,,B,,]4 (E,,B,,E,B,,) | (E,,B,,E,B,,) (E,,B,,E,B,,) | (E,,B,,E,B,,) (E,,B,,E,B,,) | %16
 (E,,B,,F,B,,) (E,,B,,F,B,,) | (E,,B,,E,,B,,) (E,,B,,E,) z | (E,D,)(D,F,) (F,E,)(E,G,) | %19
"^cresc." (G,F,)(F,=A,) (A,G,F,E,) | (D,3 C, D,2 G,2) | (C,2 F,,2)!>(! (B,,,F,,B,,F,)!>)! | %22
 [E,B,]4 [D,=A,]4 | [B,,,B,,]4 z!<(! (E,G,B,)!<)! | (_D3 C D2 B,2) | %25
 [A,C]2 [B,,,B,,]2 (E,,2 E,,,) z | [G,D]3 [CE] [G,D]4 | z4 (G2 ^F2 | G2 E2 D2 C2 | %29
 [=A,C]2 [G,B,]2 [D,A,]4) | D2 E2 [F,C]4 | (D2 E2 C2 B,2) | ([E,=A,]2 [D,A,]2 [G,B,]2 [E,G,]2) | %33
 (F,2 F,,2) (B,,2 B,,,2) | [B,D]2 [B,D]2 [F,E]4 | [B,D]2 [F,E]2 [B,D]2 B,,2 | %36
"^a tempo." (E,,B,,E,B,,) (E,,B,,E,B,,) | (E,,B,,E,B,,) (E,,B,,E,B,,) | %38
 (E,,B,,F,B,,) (E,,B,,F,B,,) | (E,,B,,E,,B,,) (E,,B,,,E,,,) z | (E,D,)(D,F,) (F,E,)(E,G,) | %41
 (G,F,)(F,=A,) (A,G,F,E,) |"^a tempo." (D,3 C, D,2 G,2) |!p! (C,2 F,,2)!>(! (B,,,F,,B,,F,)!>)! | %44
 [E,B,]4 [D,=A,]4 | [B,,,B,,]4 (E,,2 E,,,2) | (_D3 C D2 B,2) | [A,C]2 [B,,,B,,]2 [E,,,E,,]4 |] %48
V:6
 B,,4 B,,4 | B,,4 [B,,A,]4 | E,8 | x8 | x8 | x8 | x8 | x8 |[K:treble] x8 | x8 | x6[K:bass] x2 | %11
 x8 | x8 | x8 | x8 | x8 | x8 | x8 | x8 | x8 | x8 | x8 | x8 | x4 [E,,,E,,]4 | E,4 E,4 | x8 | x8 | %27
 x8 | x8 | x8 | =F,4 z2 !>![F,,,F,,]2- | [F,,,F,,]4 x4 | x8 | x8 | x8 | x8 | x8 | x8 | x8 | x8 | %40
 x8 | x8 | x8 | x8 | x8 | x8 | E,4 E,4 | x8 |] %48

